static/img/kroki/d1edf2c537d19027f0d9cf11b9448d82.svg

<?xml version="1.0" encoding="us-ascii" standalone="no"?><svg xmlns="http://www.w3.org/2000/svg" xmlns:xlink="http://www.w3.org/1999/xlink" contentStyleType="text/css" height="1085px" preserveAspectRatio="none" style="width:541px;height:1085px;" version="1.1" viewBox="0 0 541 1085" width="541px" zoomAndPan="magnify"><defs/><g><!--class aws_api_gateway_endpoint_configuration--><g id="elem_aws_api_gateway_endpoint_configuration"><rect codeLine="22" fill="#3D176E" height="100.3828" id="aws_api_gateway_endpoint_configuration" rx="2.5" ry="2.5" style="stroke:#000D19;stroke-width:0.5;" width="393" x="74" y="978.31"/><ellipse cx="89" cy="998.2045" fill="#ADD1B2" rx="11" ry="11" style="stroke:#181818;stroke-width:1.0;"/><path d="M91.9688,1003.8452 Q91.3906,1004.142 90.75,1004.2827 Q90.1094,1004.4389 89.4063,1004.4389 Q86.9063,1004.4389 85.5781,1002.7983 Q84.2656,1001.142 84.2656,998.017 Q84.2656,994.892 85.5781,993.2358 Q86.9063,991.5795 89.4063,991.5795 Q90.1094,991.5795 90.75,991.7358 Q91.4063,991.892 91.9688,992.1889 L91.9688,994.9077 Q91.3438,994.3295 90.75,994.0639 Q90.1563,993.7827 89.5313,993.7827 Q88.1875,993.7827 87.5,994.8608 Q86.8125,995.9233 86.8125,998.017 Q86.8125,1000.1108 87.5,1001.1889 Q88.1875,1002.2514 89.5313,1002.2514 Q90.1563,1002.2514 90.75,1001.9858 Q91.3438,1001.7045 91.9688,1001.1264 L91.9688,1003.8452 Z " fill="#000000"/><text fill="#D9B8FF" font-family="Helvetica" font-size="17" lengthAdjust="spacing" textLength="351" x="108" y="1004.0898">aws_api_gateway_endpoint_configuration</text><line style="stroke:#000D19;stroke-width:0.5;" x1="75" x2="466" y1="1018.0991" y2="1018.0991"/><text fill="#D9B8FF" font-family="sans-serif" font-size="14" font-weight="bold" lengthAdjust="spacing" textLength="44" x="85" y="1040.0942">types</text><text fill="#D9B8FF" font-family="sans-serif" font-size="14" lengthAdjust="spacing" textLength="58" x="129" y="1040.0942">: string[]</text><text fill="#D9B8FF" font-family="sans-serif" font-size="14" font-weight="bold" lengthAdjust="spacing" textLength="135" x="85" y="1066.3911">vpc_endpoint_ids</text><text fill="#D9B8FF" font-family="sans-serif" font-size="14" lengthAdjust="spacing" textLength="58" x="220" y="1066.3911">: string[]</text></g><!--class aws_api_gateway_rest_api--><g id="elem_aws_api_gateway_rest_api"><rect codeLine="26" fill="#3D176E" height="284.4609" id="aws_api_gateway_rest_api" rx="2.5" ry="2.5" style="stroke:#000D19;stroke-width:0.5;" width="527" x="7" y="633.85"/><ellipse cx="149.75" cy="653.7445" fill="#ADD1B2" rx="11" ry="11" style="stroke:#181818;stroke-width:1.0;"/><path d="M152.7188,659.3852 Q152.1406,659.682 151.5,659.8227 Q150.8594,659.9789 150.1563,659.9789 Q147.6563,659.9789 146.3281,658.3383 Q145.0156,656.682 145.0156,653.557 Q145.0156,650.432 146.3281,648.7758 Q147.6563,647.1195 150.1563,647.1195 Q150.8594,647.1195 151.5,647.2758 Q152.1563,647.432 152.7188,647.7289 L152.7188,650.4477 Q152.0938,649.8695 151.5,649.6039 Q150.9063,649.3227 150.2813,649.3227 Q148.9375,649.3227 148.25,650.4008 Q147.5625,651.4633 147.5625,653.557 Q147.5625,655.6508 148.25,656.7289 Q148.9375,657.7914 150.2813,657.7914 Q150.9063,657.7914 151.5,657.5258 Q152.0938,657.2445 152.7188,656.6664 L152.7188,659.3852 Z " fill="#000000"/><text fill="#D9B8FF" font-family="Helvetica" font-size="17" lengthAdjust="spacing" textLength="223" x="175.25" y="659.6298">aws_api_gateway_rest_api</text><line style="stroke:#000D19;stroke-width:0.5;" x1="8" x2="533" y1="673.6391" y2="673.6391"/><text fill="#D9B8FF" font-family="sans-serif" font-size="14" font-weight="bold" lengthAdjust="spacing" textLength="184" x="18" y="695.6342">api_binary_media_types</text><text fill="#D9B8FF" font-family="sans-serif" font-size="14" lengthAdjust="spacing" textLength="58" x="202" y="695.6342">: string[]</text><text fill="#D9B8FF" font-family="sans-serif" font-size="14" font-weight="bold" lengthAdjust="spacing" textLength="264" x="18" y="721.9311">api_disable_execute_api_endpoint</text><text fill="#D9B8FF" font-family="sans-serif" font-size="14" lengthAdjust="spacing" textLength="65" x="282" y="721.9311">: boolean</text><text fill="#D9B8FF" font-family="sans-serif" font-size="14" font-weight="bold" lengthAdjust="spacing" textLength="212" x="18" y="748.2279">api_endpoint_configuration</text><text fill="#D9B8FF" font-family="sans-serif" font-size="14" lengthAdjust="spacing" textLength="293" x="230" y="748.2279">: aws_api_gateway_endpoint_configuration</text><text fill="#D9B8FF" font-family="sans-serif" font-size="14" font-weight="bold" lengthAdjust="spacing" textLength="120" x="18" y="774.5248">api_key_source</text><text fill="#D9B8FF" font-family="sans-serif" font-size="14" lengthAdjust="spacing" textLength="48" x="138" y="774.5248">: string</text><text fill="#D9B8FF" font-family="sans-serif" font-size="14" font-weight="bold" lengthAdjust="spacing" textLength="248" x="18" y="800.8217">api_minimum_compression_size</text><text fill="#D9B8FF" font-family="sans-serif" font-size="14" lengthAdjust="spacing" textLength="44" x="266" y="800.8217">: int64</text><text fill="#D9B8FF" font-family="sans-serif" font-size="14" font-weight="bold" lengthAdjust="spacing" textLength="76" x="18" y="827.1186">api_policy</text><text fill="#D9B8FF" font-family="sans-serif" font-size="14" lengthAdjust="spacing" textLength="48" x="94" y="827.1186">: string</text><text fill="#D9B8FF" font-family="sans-serif" font-size="14" font-weight="bold" lengthAdjust="spacing" textLength="89" x="18" y="853.4154">api_version</text><text fill="#D9B8FF" font-family="sans-serif" font-size="14" lengthAdjust="spacing" textLength="48" x="107" y="853.4154">: string</text><text fill="#D9B8FF" font-family="sans-serif" font-size="14" font-weight="bold" lengthAdjust="spacing" textLength="103" x="18" y="879.7123">api_warnings</text><text fill="#D9B8FF" font-family="sans-serif" font-size="14" lengthAdjust="spacing" textLength="58" x="121" y="879.7123">: string[]</text><text fill="#D9B8FF" font-family="sans-serif" font-size="14" font-weight="bold" lengthAdjust="spacing" textLength="89" x="18" y="906.0092">description</text><text fill="#D9B8FF" font-family="sans-serif" font-size="14" lengthAdjust="spacing" textLength="48" x="107" y="906.0092">: string</text></g><!--class aws_resource--><g id="elem_aws_resource"><rect codeLine="37" fill="#3D176E" height="74.0859" id="aws_resource" rx="2.5" ry="2.5" style="stroke:#000D19;stroke-width:0.5;" width="155" x="193" y="438.76"/><ellipse cx="208" cy="458.6545" fill="#ADD1B2" rx="11" ry="11" style="stroke:#181818;stroke-width:1.0;"/><path d="M210.9688,464.2952 Q210.3906,464.592 209.75,464.7327 Q209.1094,464.8889 208.4063,464.8889 Q205.9063,464.8889 204.5781,463.2483 Q203.2656,461.592 203.2656,458.467 Q203.2656,455.342 204.5781,453.6858 Q205.9063,452.0295 208.4063,452.0295 Q209.1094,452.0295 209.75,452.1858 Q210.4063,452.342 210.9688,452.6389 L210.9688,455.3577 Q210.3438,454.7795 209.75,454.5139 Q209.1563,454.2327 208.5313,454.2327 Q207.1875,454.2327 206.5,455.3108 Q205.8125,456.3733 205.8125,458.467 Q205.8125,460.5608 206.5,461.6389 Q207.1875,462.7014 208.5313,462.7014 Q209.1563,462.7014 209.75,462.4358 Q210.3438,462.1545 210.9688,461.5764 L210.9688,464.2952 Z " fill="#000000"/><text fill="#D9B8FF" font-family="Helvetica" font-size="17" lengthAdjust="spacing" textLength="113" x="227" y="464.5398">aws_resource</text><line style="stroke:#000D19;stroke-width:0.5;" x1="194" x2="347" y1="478.5491" y2="478.5491"/><text fill="#D9B8FF" font-family="sans-serif" font-size="14" font-weight="bold" lengthAdjust="spacing" textLength="26" x="204" y="500.5442">arn</text><text fill="#D9B8FF" font-family="sans-serif" font-size="14" lengthAdjust="spacing" textLength="48" x="230" y="500.5442">: string</text></g><!--class resource--><g id="elem_resource"><rect codeLine="40" fill="#3D176E" height="310.7578" id="resource" rx="2.5" ry="2.5" style="stroke:#000D19;stroke-width:0.5;" width="227" x="157" y="7"/><ellipse cx="225.75" cy="26.8945" fill="#ADD1B2" rx="11" ry="11" style="stroke:#181818;stroke-width:1.0;"/><path d="M228.7188,32.5352 Q228.1406,32.832 227.5,32.9727 Q226.8594,33.1289 226.1563,33.1289 Q223.6563,33.1289 222.3281,31.4883 Q221.0156,29.832 221.0156,26.707 Q221.0156,23.582 222.3281,21.9258 Q223.6563,20.2695 226.1563,20.2695 Q226.8594,20.2695 227.5,20.4258 Q228.1563,20.582 228.7188,20.8789 L228.7188,23.5977 Q228.0938,23.0195 227.5,22.7539 Q226.9063,22.4727 226.2813,22.4727 Q224.9375,22.4727 224.25,23.5508 Q223.5625,24.6133 223.5625,26.707 Q223.5625,28.8008 224.25,29.8789 Q224.9375,30.9414 226.2813,30.9414 Q226.9063,30.9414 227.5,30.6758 Q228.0938,30.3945 228.7188,29.8164 L228.7188,32.5352 Z " fill="#000000"/><text fill="#D9B8FF" font-family="Helvetica" font-size="17" lengthAdjust="spacing" textLength="71" x="251.25" y="32.7798">resource</text><line style="stroke:#000D19;stroke-width:0.5;" x1="158" x2="383" y1="46.7891" y2="46.7891"/><text fill="#D9B8FF" font-family="sans-serif" font-size="14" font-weight="bold" lengthAdjust="spacing" textLength="29" x="168" y="68.7842">age</text><text fill="#D9B8FF" font-family="sans-serif" font-size="14" lengthAdjust="spacing" textLength="66" x="197" y="68.7842">: duration</text><text fill="#D9B8FF" font-family="sans-serif" font-size="14" font-weight="bold" lengthAdjust="spacing" textLength="43" x="168" y="95.0811">atime</text><text fill="#D9B8FF" font-family="sans-serif" font-size="14" lengthAdjust="spacing" textLength="70" x="211" y="95.0811">: datetime</text><text fill="#D9B8FF" font-family="sans-serif" font-size="14" font-weight="bold" lengthAdjust="spacing" textLength="43" x="168" y="121.3779">ctime</text><text fill="#D9B8FF" font-family="sans-serif" font-size="14" lengthAdjust="spacing" textLength="70" x="211" y="121.3779">: datetime</text><text fill="#D9B8FF" font-family="sans-serif" font-size="14" font-weight="bold" lengthAdjust="spacing" textLength="14" x="168" y="147.6748">id</text><text fill="#D9B8FF" font-family="sans-serif" font-size="14" lengthAdjust="spacing" textLength="48" x="182" y="147.6748">: string</text><text fill="#D9B8FF" font-family="sans-serif" font-size="14" font-weight="bold" lengthAdjust="spacing" textLength="33" x="168" y="173.9717">kind</text><text fill="#D9B8FF" font-family="sans-serif" font-size="14" lengthAdjust="spacing" textLength="48" x="201" y="173.9717">: string</text><text fill="#D9B8FF" font-family="sans-serif" font-size="14" font-weight="bold" lengthAdjust="spacing" textLength="90" x="168" y="200.2686">last_access</text><text fill="#D9B8FF" font-family="sans-serif" font-size="14" lengthAdjust="spacing" textLength="66" x="258" y="200.2686">: duration</text><text fill="#D9B8FF" font-family="sans-serif" font-size="14" font-weight="bold" lengthAdjust="spacing" textLength="90" x="168" y="226.5654">last_update</text><text fill="#D9B8FF" font-family="sans-serif" font-size="14" lengthAdjust="spacing" textLength="66" x="258" y="226.5654">: duration</text><text fill="#D9B8FF" font-family="sans-serif" font-size="14" font-weight="bold" lengthAdjust="spacing" textLength="48" x="168" y="252.8623">mtime</text><text fill="#D9B8FF" font-family="sans-serif" font-size="14" lengthAdjust="spacing" textLength="70" x="216" y="252.8623">: datetime</text><text fill="#D9B8FF" font-family="sans-serif" font-size="14" font-weight="bold" lengthAdjust="spacing" textLength="43" x="168" y="279.1592">name</text><text fill="#D9B8FF" font-family="sans-serif" font-size="14" lengthAdjust="spacing" textLength="48" x="211" y="279.1592">: string</text><text fill="#D9B8FF" font-family="sans-serif" font-size="14" font-weight="bold" lengthAdjust="spacing" textLength="34" x="168" y="305.4561">tags</text><text fill="#D9B8FF" font-family="sans-serif" font-size="14" lengthAdjust="spacing" textLength="171" x="202" y="305.4561">: dictionary[string, string]</text></g><!--link aws_api_gateway_rest_api to aws_api_gateway_endpoint_configuration--><g id="link_aws_api_gateway_rest_api_aws_api_gateway_endpoint_configuration"><path codeLine="52" d="M270.5,918.75 C270.5,937.68 270.5,956.09 270.5,972.22 " fill="none" id="aws_api_gateway_rest_api-to-aws_api_gateway_endpoint_configuration" style="stroke:#FFAF37;stroke-width:2.0;"/><polygon fill="#FFAF37" points="270.5,977.06,274.5,968.06,270.5,972.06,266.5,968.06,270.5,977.06" style="stroke:#FFAF37;stroke-width:2.0;"/></g><!--reverse link aws_resource to aws_api_gateway_rest_api--><g id="link_aws_resource_aws_api_gateway_rest_api"><path codeLine="53" d="M270.5,533.78 C270.5,562.32 270.5,598.27 270.5,633.64 " fill="none" id="aws_resource-backto-aws_api_gateway_rest_api" style="stroke:#FFAF37;stroke-width:2.0;"/><polygon fill="none" points="263.5,534.08,270.5,514.08,277.5,534.08,263.5,534.08" style="stroke:#FFAF37;stroke-width:2.0;"/></g><!--reverse link resource to aws_resource--><g id="link_resource_aws_resource"><path codeLine="54" d="M270.5,338.98 C270.5,376.78 270.5,413 270.5,438.52 " fill="none" id="resource-backto-aws_resource" style="stroke:#FFAF37;stroke-width:2.0;"/><polygon fill="none" points="263.5,339.18,270.5,319.18,277.5,339.18,263.5,339.18" style="stroke:#FFAF37;stroke-width:2.0;"/></g><!--SRC=[ZPHDRzim38Rl-HK6UWiM86ctfXc60bs0ORiKmxfRCHYqH2T4BCcWv6JUnt-VP3khFzlURBuFoPSquJr9Z53bhemKgWJPpko1T0uCAhfZDgUjoGn75saAwTMwBtuoshq8t8F2w3DcHtGae4zytvCuQBGskcn97q4STcmABUloZa5RBw5sBMgRWRLtpZ4bXSEM6Rb9RjAqJ_QBNbp9rVeQ1vXXYTmWo-LIhZPzvCLMpyxzdtYWNnYjsakxDmu7DWSjAkfPbu5ecHmCUjOdFNu5AKdledUjsBVQ4slaJlnX3zAS0fr2Pjjjh4D6uyeSjuEfS7CZq_Ke_6KA5c5p4Pni33d5Et1uWZ96BND3siN2w9Hs1OCZewFVi_ayLBFp-NjVdBt1nny-Tip5Kmh9hlnteWUZTI5GLGr2GXguZ1LAWdYiJO0aMKWoZF4d2d-XLSLpwu0dncG8kg77vmZSwoPkoXomZAqfME2JeqPIf4aLogUft4zaVL9i_H46q9UxVjjmkSb8b8Fqe_y_D8uwyHEmzc_z3KYqWYbttPJsXhs7ocYzLHx3kiYkiYfR0pjITSol9Zpxc1Y9aUouzaVN3VXU_liAuPVIwr0fHHvgzHGrqaU3wgxTGRqNIIAa-PjvhBKt3HDkRlBQ5elRrtxypZu__5ai5fD7F1lXpg5_]--></g></svg>

<svg xmlns="http://www.w3.org/2000/svg" width="541" height="1085" preserveAspectRatio="none" style="width:541px;height:1085px"><rect width="393" height="100.383" x="74" y="978.31" fill="#3D176E" rx="2.5" ry="2.5" style="stroke:#000d19;stroke-width:.5"/><circle cx="89" cy="998.205" r="11" fill="#ADD1B2" style="stroke:#181818;stroke-width:1"/><path d="M91.969 1003.845q-.578.297-1.219.438-.64.156-1.344.156-2.5 0-3.828-1.64-1.312-1.657-1.312-4.782t1.312-4.781q1.328-1.656 3.828-1.656.703 0 1.344.156.656.156 1.219.453v2.719q-.625-.578-1.219-.844-.594-.281-1.219-.281-1.344 0-2.031 1.078-.688 1.062-.688 3.156 0 2.094.688 3.172.688 1.062 2.031 1.062.625 0 1.219-.265.594-.281 1.219-.86v2.72Z"/><text x="108" y="1004.09" fill="#D9B8FF" font-family="Helvetica" font-size="17" textLength="351">aws_api_gateway_endpoint_configuration</text><path d="M75 1018.099h391" style="stroke:#000d19;stroke-width:.5"/><text x="85" y="1040.094" fill="#D9B8FF" font-family="sans-serif" font-size="14" font-weight="bold" textLength="44">types</text><text x="129" y="1040.094" fill="#D9B8FF" font-family="sans-serif" font-size="14" textLength="58">: string[]</text><text x="85" y="1066.391" fill="#D9B8FF" font-family="sans-serif" font-size="14" font-weight="bold" textLength="135">vpc_endpoint_ids</text><text x="220" y="1066.391" fill="#D9B8FF" font-family="sans-serif" font-size="14" textLength="58">: string[]</text><rect width="527" height="284.461" x="7" y="633.85" fill="#3D176E" rx="2.5" ry="2.5" style="stroke:#000d19;stroke-width:.5"/><circle cx="149.75" cy="653.745" r="11" fill="#ADD1B2" style="stroke:#181818;stroke-width:1"/><path d="M152.719 659.385q-.578.297-1.219.438-.64.156-1.344.156-2.5 0-3.828-1.64-1.312-1.657-1.312-4.782t1.312-4.781q1.328-1.656 3.828-1.656.703 0 1.344.156.656.156 1.219.453v2.719q-.625-.578-1.219-.844-.594-.281-1.219-.281-1.344 0-2.031 1.078-.688 1.062-.688 3.156 0 2.094.688 3.172.688 1.062 2.031 1.062.625 0 1.219-.265.594-.281 1.219-.86v2.72Z"/><text x="175.25" y="659.63" fill="#D9B8FF" font-family="Helvetica" font-size="17" textLength="223">aws_api_gateway_rest_api</text><path d="M8 673.639h525" style="stroke:#000d19;stroke-width:.5"/><text x="18" y="695.634" fill="#D9B8FF" font-family="sans-serif" font-size="14" font-weight="bold" textLength="184">api_binary_media_types</text><text x="202" y="695.634" fill="#D9B8FF" font-family="sans-serif" font-size="14" textLength="58">: string[]</text><text x="18" y="721.931" fill="#D9B8FF" font-family="sans-serif" font-size="14" font-weight="bold" textLength="264">api_disable_execute_api_endpoint</text><text x="282" y="721.931" fill="#D9B8FF" font-family="sans-serif" font-size="14" textLength="65">: boolean</text><text x="18" y="748.228" fill="#D9B8FF" font-family="sans-serif" font-size="14" font-weight="bold" textLength="212">api_endpoint_configuration</text><text x="230" y="748.228" fill="#D9B8FF" font-family="sans-serif" font-size="14" textLength="293">: aws_api_gateway_endpoint_configuration</text><text x="18" y="774.525" fill="#D9B8FF" font-family="sans-serif" font-size="14" font-weight="bold" textLength="120">api_key_source</text><text x="138" y="774.525" fill="#D9B8FF" font-family="sans-serif" font-size="14" textLength="48">: string</text><text x="18" y="800.822" fill="#D9B8FF" font-family="sans-serif" font-size="14" font-weight="bold" textLength="248">api_minimum_compression_size</text><text x="266" y="800.822" fill="#D9B8FF" font-family="sans-serif" font-size="14" textLength="44">: int64</text><text x="18" y="827.119" fill="#D9B8FF" font-family="sans-serif" font-size="14" font-weight="bold" textLength="76">api_policy</text><text x="94" y="827.119" fill="#D9B8FF" font-family="sans-serif" font-size="14" textLength="48">: string</text><text x="18" y="853.415" fill="#D9B8FF" font-family="sans-serif" font-size="14" font-weight="bold" textLength="89">api_version</text><text x="107" y="853.415" fill="#D9B8FF" font-family="sans-serif" font-size="14" textLength="48">: string</text><text x="18" y="879.712" fill="#D9B8FF" font-family="sans-serif" font-size="14" font-weight="bold" textLength="103">api_warnings</text><text x="121" y="879.712" fill="#D9B8FF" font-family="sans-serif" font-size="14" textLength="58">: string[]</text><text x="18" y="906.009" fill="#D9B8FF" font-family="sans-serif" font-size="14" font-weight="bold" textLength="89">description</text><text x="107" y="906.009" fill="#D9B8FF" font-family="sans-serif" font-size="14" textLength="48">: string</text><rect width="155" height="74.086" x="193" y="438.76" fill="#3D176E" rx="2.5" ry="2.5" style="stroke:#000d19;stroke-width:.5"/><circle cx="208" cy="458.654" r="11" fill="#ADD1B2" style="stroke:#181818;stroke-width:1"/><path d="M210.969 464.295q-.578.297-1.219.438-.64.156-1.344.156-2.5 0-3.828-1.64-1.312-1.657-1.312-4.782t1.312-4.781q1.328-1.656 3.828-1.656.703 0 1.344.156.656.156 1.219.453v2.719q-.625-.579-1.219-.844-.594-.281-1.219-.281-1.344 0-2.031 1.078-.688 1.062-.688 3.156 0 2.094.688 3.172.688 1.062 2.031 1.062.625 0 1.219-.265.594-.281 1.219-.86v2.72Z"/><text x="227" y="464.54" fill="#D9B8FF" font-family="Helvetica" font-size="17" textLength="113">aws_resource</text><path d="M194 478.549h153" style="stroke:#000d19;stroke-width:.5"/><text x="204" y="500.544" fill="#D9B8FF" font-family="sans-serif" font-size="14" font-weight="bold" textLength="26">arn</text><text x="230" y="500.544" fill="#D9B8FF" font-family="sans-serif" font-size="14" textLength="48">: string</text><rect width="227" height="310.758" x="157" y="7" fill="#3D176E" rx="2.5" ry="2.5" style="stroke:#000d19;stroke-width:.5"/><circle cx="225.75" cy="26.895" r="11" fill="#ADD1B2" style="stroke:#181818;stroke-width:1"/><path d="M228.719 32.535q-.578.297-1.219.438-.64.156-1.344.156-2.5 0-3.828-1.64-1.312-1.657-1.312-4.782t1.312-4.781q1.328-1.656 3.828-1.656.703 0 1.344.156.656.156 1.219.453v2.719q-.625-.578-1.219-.844-.594-.281-1.219-.281-1.344 0-2.031 1.078-.688 1.062-.688 3.156 0 2.094.688 3.172.688 1.062 2.031 1.062.625 0 1.219-.265.594-.281 1.219-.86v2.72Z"/><text x="251.25" y="32.78" fill="#D9B8FF" font-family="Helvetica" font-size="17" textLength="71">resource</text><path d="M158 46.789h225" style="stroke:#000d19;stroke-width:.5"/><text x="168" y="68.784" fill="#D9B8FF" font-family="sans-serif" font-size="14" font-weight="bold" textLength="29">age</text><text x="197" y="68.784" fill="#D9B8FF" font-family="sans-serif" font-size="14" textLength="66">: duration</text><text x="168" y="95.081" fill="#D9B8FF" font-family="sans-serif" font-size="14" font-weight="bold" textLength="43">atime</text><text x="211" y="95.081" fill="#D9B8FF" font-family="sans-serif" font-size="14" textLength="70">: datetime</text><text x="168" y="121.378" fill="#D9B8FF" font-family="sans-serif" font-size="14" font-weight="bold" textLength="43">ctime</text><text x="211" y="121.378" fill="#D9B8FF" font-family="sans-serif" font-size="14" textLength="70">: datetime</text><text x="168" y="147.675" fill="#D9B8FF" font-family="sans-serif" font-size="14" font-weight="bold" textLength="14">id</text><text x="182" y="147.675" fill="#D9B8FF" font-family="sans-serif" font-size="14" textLength="48">: string</text><text x="168" y="173.972" fill="#D9B8FF" font-family="sans-serif" font-size="14" font-weight="bold" textLength="33">kind</text><text x="201" y="173.972" fill="#D9B8FF" font-family="sans-serif" font-size="14" textLength="48">: string</text><text x="168" y="200.269" fill="#D9B8FF" font-family="sans-serif" font-size="14" font-weight="bold" textLength="90">last_access</text><text x="258" y="200.269" fill="#D9B8FF" font-family="sans-serif" font-size="14" textLength="66">: duration</text><text x="168" y="226.565" fill="#D9B8FF" font-family="sans-serif" font-size="14" font-weight="bold" textLength="90">last_update</text><text x="258" y="226.565" fill="#D9B8FF" font-family="sans-serif" font-size="14" textLength="66">: duration</text><text x="168" y="252.862" fill="#D9B8FF" font-family="sans-serif" font-size="14" font-weight="bold" textLength="48">mtime</text><text x="216" y="252.862" fill="#D9B8FF" font-family="sans-serif" font-size="14" textLength="70">: datetime</text><text x="168" y="279.159" fill="#D9B8FF" font-family="sans-serif" font-size="14" font-weight="bold" textLength="43">name</text><text x="211" y="279.159" fill="#D9B8FF" font-family="sans-serif" font-size="14" textLength="48">: string</text><text x="168" y="305.456" fill="#D9B8FF" font-family="sans-serif" font-size="14" font-weight="bold" textLength="34">tags</text><text x="202" y="305.456" fill="#D9B8FF" font-family="sans-serif" font-size="14" textLength="171">: dictionary[string, string]</text><path fill="none" d="M270.5 918.75v53.47" style="stroke:#ffaf37;stroke-width:2"/><path fill="#FFAF37" d="m270.5 977.06 4-9-4 4-4-4 4 9z" style="stroke:#ffaf37;stroke-width:2"/><path fill="none" d="M270.5 533.78v99.86m-7-99.56 7-20 7 20h-14zm7-195.1v99.54m-7-99.34 7-20 7 20h-14z" style="stroke:#ffaf37;stroke-width:2"/></svg>
